src/home/img/node.svg

<svg fill="none" height="42" viewBox="0 0 37 42" width="37" xmlns="http://www.w3.org/2000/svg"><path clip-rule="evenodd" d="m18.7397 1c-.5394 0-1.0638.11155-1.5277.37414l-14.68431 8.48013c-.95028.54713-1.52769 1.58133-1.52769 2.68123v16.9291c0 1.0993.57741 2.1323 1.52769 2.6811l3.83475 2.2137c1.86314.9182 2.55029.904 3.3983.904 2.75856 0 4.33356-1.6738 4.33356-4.5829v-16.7109c0-.2362-.2045-.4053-.4364-.4053h-1.8395c-.2357 0-.4365.1691-.4365.4053v16.7109c0 1.2894-1.3431 2.5862-3.52296 1.4965l-3.99064-2.3383c-.14092-.0768-.24943-.2124-.24943-.3741v-16.9291c0-.1607.10726-.324.24943-.4053l14.6532-8.44897c.1371-.07881.3005-.07881.4364 0l14.6532 8.44897c.1397.0838.2494.2397.2494.4053v16.9291c0 .1617-.0811.3274-.2182.4053l-14.6844 8.449c-.1259.0748-.2993.0748-.4364 0l-3.7725-2.2448c-.1122-.0658-.2656-.0608-.3741 0-1.0413.5904-1.2371.659-2.2135.9977-.2407.0838-.6061.2142.1247.6235l4.9259 2.8994c.4689.2714.9914.4053 1.5277.4053.5437 0 1.0588-.1339 1.5277-.4053l14.6843-8.449c.9503-.5527 1.5277-1.5818 1.5277-2.6811v-16.9291c0-1.0999-.5774-2.1318-1.5277-2.68123l-14.6843-8.48013c-.4602-.26259-.9883-.37414-1.5277-.37414zm3.9283 12.0969c-4.1815 0-6.6719 1.7795-6.6719 4.7389 0 3.2103 2.4717 4.0924 6.4848 4.4895 4.8013.47 5.1754 1.1749 5.1754 2.12 0 1.6392-1.3069 2.3382-4.3959 2.3382-3.881 0-4.7339-.9688-5.0195-2.8994-.0337-.207-.1933-.3741-.4053-.3741h-1.9018c-.2345 0-.4365.2016-.4365.4364 0 2.4712 1.3443 5.3937 7.7631 5.3937 4.6466 0 7.3265-1.8239 7.3265-5.0195 0-3.168-2.1649-4.0183-6.6718-4.6142-4.5544-.6026-4.9883-.8975-4.9883-1.9641 0-.8804.3678-2.0578 3.7412-2.0578 3.0129 0 4.1266.6498 4.583 2.6813.0399.191.2083.3429.4053.3429h1.9018c.1172 0 .2307-.0718.3118-.1559.0798-.0898.1359-.191.1247-.3117-.2943-3.4987-2.6276-5.1442-7.3266-5.1442z" fill="#fff" fill-rule="evenodd" stroke="#fff" stroke-width=".5"/></svg>

<svg width="37" height="42" viewBox="0 0 37 42" fill="none" xmlns="http://www.w3.org/2000/svg">
<path fill-rule="evenodd" clip-rule="evenodd" d="M18.7397 1C18.2003 1 17.6759 1.11155 17.212 1.37414L2.52769 9.85427C1.57741 10.4014 1 11.4356 1 12.5355V29.4646C1 30.5639 1.57741 31.5969 2.52769 32.1457L6.36244 34.3594C8.22558 35.2776 8.91273 35.2634 9.76074 35.2634C12.5193 35.2634 14.0943 33.5896 14.0943 30.6805V13.9696C14.0943 13.7334 13.8898 13.5643 13.6579 13.5643H11.8184C11.5827 13.5643 11.3819 13.7334 11.3819 13.9696V30.6805C11.3819 31.9699 10.0388 33.2667 7.85894 32.177L3.8683 29.8387C3.72738 29.7619 3.61887 29.6263 3.61887 29.4646V12.5355C3.61887 12.3748 3.72613 12.2115 3.8683 12.1302L18.5215 3.68123C18.6586 3.60242 18.822 3.60242 18.9579 3.68123L33.6111 12.1302C33.7508 12.214 33.8605 12.3699 33.8605 12.5355V29.4646C33.8605 29.6263 33.7794 29.792 33.6423 29.8699L18.9579 38.3189C18.832 38.3937 18.6586 38.3937 18.5215 38.3189L14.749 36.0741C14.6368 36.0083 14.4834 36.0133 14.3749 36.0741C13.3336 36.6645 13.1378 36.7331 12.1614 37.0718C11.9207 37.1556 11.5553 37.286 12.2861 37.6953L17.212 40.5947C17.6809 40.8661 18.2034 41 18.7397 41C19.2834 41 19.7985 40.8661 20.2674 40.5947L34.9517 32.1457C35.902 31.593 36.4794 30.5639 36.4794 29.4646V12.5355C36.4794 11.4356 35.902 10.4037 34.9517 9.85427L20.2674 1.37414C19.8072 1.11155 19.2791 1 18.7397 1ZM22.668 13.0969C18.4865 13.0969 15.9961 14.8764 15.9961 17.8358C15.9961 21.0461 18.4678 21.9282 22.4809 22.3253C27.2822 22.7953 27.6563 23.5002 27.6563 24.4453C27.6563 26.0845 26.3494 26.7835 23.2604 26.7835C19.3794 26.7835 18.5265 25.8147 18.2409 23.8841C18.2072 23.6771 18.0476 23.51 17.8356 23.51H15.9338C15.6993 23.51 15.4973 23.7116 15.4973 23.9464C15.4973 26.4176 16.8416 29.3401 23.2604 29.3401C27.907 29.3401 30.5869 27.5162 30.5869 24.3206C30.5869 21.1526 28.422 20.3023 23.9151 19.7064C19.3607 19.1038 18.9268 18.8089 18.9268 17.7423C18.9268 16.8619 19.2946 15.6845 22.668 15.6845C25.6809 15.6845 26.7946 16.3343 27.251 18.3658C27.2909 18.5568 27.4593 18.7087 27.6563 18.7087H29.5581C29.6753 18.7087 29.7888 18.6369 29.8699 18.5528C29.9497 18.463 30.0058 18.3618 29.9946 18.2411C29.7003 14.7424 27.367 13.0969 22.668 13.0969Z" fill="white" stroke="white" stroke-width="0.5"/>
</svg>
